src/pos-icons/spellcheck.svg

<svg height="24" viewBox="0 0 24 24" width="24" xmlns="http://www.w3.org/2000/svg"><path d="m21.59 11.59-8.09 8.09-3.67-3.68-1.41 1.41 5.08 5.09 9.5-9.5m-16.57-2 2.07-5.5 2.07 5.5m1.88 5h2.09l-5.11-13h-1.86l-5.11 13h2.09l1.12-3h5.64z"/></svg>

<?xml version="1.0" encoding="UTF-8"?><!DOCTYPE svg PUBLIC "-//W3C//DTD SVG 1.1//EN" "http://www.w3.org/Graphics/SVG/1.1/DTD/svg11.dtd"><svg xmlns="http://www.w3.org/2000/svg" xmlns:xlink="http://www.w3.org/1999/xlink" version="1.1" id="mdi-spellcheck" width="24" height="24" viewBox="0 0 24 24"><path d="M21.59,11.59L13.5,19.68L9.83,16L8.42,17.41L13.5,22.5L23,13M6.43,11L8.5,5.5L10.57,11M12.45,16H14.54L9.43,3H7.57L2.46,16H4.55L5.67,13H11.31L12.45,16Z" /></svg>
